src/assets/blender-lut.cube
LUT_3D_SIZE 32
0.000001 0.000001 0.000001
0.037293 0.000001 0.000001
0.079714 0.000001 0.000001
0.120832 0.000001 0.000001
0.159284 0.000001 0.000001
0.194868 0.000001 0.000001
0.227530 0.000001 0.000001
0.257434 0.000001 0.000001
0.285092 0.000001 0.000001
0.310738 0.000001 0.000001
0.334585 0.000001 0.000001
0.356818 0.000001 0.000001
0.377602 0.000001 0.000001
0.397079 0.000001 0.000001
0.415373 0.000001 0.000001
0.432594 0.000001 0.000001
0.448839 0.000001 0.000001
0.464192 0.000001 0.000001
0.478729 0.000001 0.000001
0.492515 0.000001 0.000001
0.505612 0.000001 0.000001
0.518072 0.000001 0.000001
0.529943 0.000001 0.000001
0.541266 0.000001 0.000001
0.552083 0.000001 0.000001
0.562427 0.000001 0.000001
0.572331 0.000001 0.000001
0.581823 0.000001 0.000001
0.590929 0.000001 0.000001
0.599674 0.000001 0.000001
0.608079 0.000001 0.000001
0.616166 0.000001 0.000001
0.000001 0.037293 0.000001
0.037293 0.037293 0.000001
0.079714 0.037293 0.000001
0.120832 0.037293 0.000001
0.159284 0.037293 0.000001
0.194868 0.037293 0.000001
0.227530 0.037293 0.000001
0.257434 0.037293 0.000001
0.285092 0.037293 0.000001
0.310738 0.037293 0.000001
0.334585 0.037293 0.000001
0.356818 0.037293 0.000001
0.377602 0.037293 0.000001
0.397079 0.037293 0.000001
0.415373 0.037293 0.000001
0.432594 0.037293 0.000001
0.448839 0.037293 0.000001
0.464192 0.037293 0.000001
0.478729 0.037293 0.000001
0.492515 0.037293 0.000001
0.505612 0.037293 0.000001
0.518072 0.037293 0.000001
0.529943 0.037293 0.000001
0.541266 0.037293 0.000001
0.552083 0.037293 0.000001
0.562427 0.037293 0.000001
0.572331 0.037293 0.000001
0.581823 0.037293 0.000001
0.590929 0.037293 0.000001
0.599674 0.037293 0.000001
0.608079 0.037293 0.000001
0.616166 0.037293 0.000001
0.000001 0.079714 0.000001
0.037293 0.079714 0.000001
0.079714 0.079714 0.000001
0.120832 0.079714 0.000001
0.159284 0.079714 0.000001
0.194868 0.079714 0.000001
0.227530 0.079714 0.000001
0.257434 0.079714 0.000001
0.285092 0.079714 0.000001
0.310738 0.079714 0.000001
0.334585 0.079714 0.000001
0.356818 0.079714 0.000001
0.377602 0.079714 0.000001
0.397079 0.079714 0.000001
0.415373 0.079714 0.000001
0.432594 0.079714 0.000001
0.448839 0.079714 0.000001
0.464192 0.079714 0.000001
0.478729 0.079714 0.000001
0.492515 0.079714 0.000001
0.505612 0.079714 0.000001
0.518072 0.079714 0.000001
0.529943 0.079714 0.000001
0.541266 0.079714 0.000001
0.552083 0.079714 0.000001
0.562427 0.079714 0.000001
0.572331 0.079714 0.000001
0.581823 0.079714 0.000001
0.590929 0.079714 0.000001
0.599674 0.079714 0.000001
0.608079 0.079714 0.000001
0.616166 0.079714 0.000001
0.000001 0.120832 0.000001
0.037293 0.120832 0.000001
0.079714 0.120832 0.000001
0.120832 0.120832 0.000001
0.159284 0.120832 0.000001
0.194868 0.120832 0.000001
0.227530 0.120832 0.000001
0.257434 0.120832 0.000001
0.285092 0.120832 0.000001
0.310738 0.120832 0.000001
0.334585 0.120832 0.000001
0.356818 0.120832 0.000001
0.377602 0.120832 0.000001
0.397079 0.120832 0.000001
0.415373 0.120832 0.000001
0.432594 0.120832 0.000001
0.448839 0.120832 0.000001
0.464192 0.120832 0.000001
0.478729 0.120832 0.000001
0.492515 0.120832 0.000001
0.505612 0.120832 0.000001
0.518072 0.120832 0.000001
0.529943 0.120832 0.000001
0.541266 0.120832 0.000001
0.552083 0.120832 0.000001
0.562427 0.120832 0.000001
0.572331 0.120832 0.000001
0.581823 0.120832 0.000001
0.590929 0.120832 0.000001
0.599674 0.120832 0.000001
0.608079 0.120832 0.000001
0.616166 0.120832 0.000001
0.000001 0.159284 0.000001
0.037293 0.159284 0.000001
0.079714 0.159284 0.000001
0.120832 0.159284 0.000001
0.159284 0.159284 0.000001
0.194868 0.159284 0.000001
0.227530 0.159284 0.000001
0.257434 0.159284 0.000001
0.285092 0.159284 0.000001
0.310738 0.159284 0.000001
0.334585 0.159284 0.000001
0.356818 0.159284 0.000001
0.377602 0.159284 0.000001
0.397079 0.159284 0.000001
0.415373 0.159284 0.000001
0.432594 0.159284 0.000001
0.448839 0.159284 0.000001
0.464192 0.159284 0.000001
0.478729 0.159284 0.000001
0.492515 0.159284 0.000001
0.505612 0.159284 0.000001
0.518072 0.159284 0.000001
0.529943 0.159284 0.000001
0.541266 0.159284 0.000001
0.552083 0.159284 0.000001
0.562427 0.159284 0.000001
0.572331 0.159284 0.000001
0.581823 0.159284 0.000001
0.590929 0.159284 0.000001
0.599674 0.159284 0.000001
0.608079 0.159284 0.000001
0.616166 0.159284 0.000001
0.000001 0.194868 0.000001
0.037293 0.194868 0.000001
0.079714 0.194868 0.000001
0.120832 0.194868 0.000001
0.159284 0.194868 0.000001
0.194868 0.194868 0.000001
0.227530 0.194868 0.000001
0.257434 0.194868 0.000001
0.285092 0.194868 0.000001
0.310738 0.194868 0.000001
0.334585 0.194868 0.000001
0.356818 0.194868 0.000001
0.377602 0.194868 0.000001
0.397079 0.194868 0.000001
0.415373 0.194868 0.000001
0.432594 0.194868 0.000001
0.448839 0.194868 0.000001
0.464192 0.194868 0.000001
0.478729 0.194868 0.000001
0.492515 0.194868 0.000001
0.505612 0.194868 0.000001
0.518072 0.194868 0.000001
0.529943 0.194868 0.000001
0.541266 0.194868 0.000001
0.552083 0.194868 0.000001
0.562427 0.194868 0.000001
0.572331 0.194868 0.000001
0.581823 0.194868 0.000001
0.590929 0.194868 0.000001
0.599674 0.194868 0.000001
0.608079 0.194868 0.000001
0.616166 0.194868 0.000001
0.000001 0.227530 0.000001
0.037293 0.227530 0.000001
0.079714 0.227530 0.000001
0.120832 0.227530 0.000001
0.159284 0.227530 0.000001
0.194868 0.227530 0.000001
0.227530 0.227530 0.000001
0.257434 0.227530 0.000001
0.285092 0.227530 0.000001
0.310738 0.227530 0.000001
0.334585 0.227530 0.000001
0.356818 0.227530 0.000001
0.377602 0.227530 0.000001
0.397079 0.227530 0.000001
0.415373 0.227530 0.000001
0.432594 0.227530 0.000001
0.448839 0.227530 0.000001
0.464192 0.227530 0.000001
0.478729 0.227530 0.000001
0.492515 0.227530 0.000001
0.505612 0.227530 0.000001
0.518072 0.227530 0.000001
0.529943 0.227530 0.000001
0.541266 0.227530 0.000001
0.552083 0.227530 0.000001
0.562427 0.227530 0.000001
0.572331 0.227530 0.000001
0.581823 0.227530 0.000001
0.590929 0.227530 0.000001
0.599674 0.227530 0.000001
0.608079 0.227530 0.000001
0.616166 0.227530 0.000001
0.000001 0.257434 0.000001
0.037293 0.257434 0.000001
0.079714 0.257434 0.000001
0.120832 0.257434 0.000001
0.159284 0.257434 0.000001
0.194868 0.257434 0.000001
0.227530 0.257434 0.000001
0.257434 0.257434 0.000001
0.285092 0.257434 0.000001
0.310738 0.257434 0.000001
0.334585 0.257434 0.000001
0.356818 0.257434 0.000001
0.377602 0.257434 0.000001
0.397079 0.257434 0.000001
0.415373 0.257434 0.000001
0.432594 0.257434 0.000001
0.448839 0.257434 0.000001
0.464192 0.257434 0.000001
0.478729 0.257434 0.000001
0.492515 0.257434 0.000001
0.505612 0.257434 0.000001
0.518072 0.257434 0.000001
0.529943 0.257434 0.000001
0.541266 0.257434 0.000001
0.552083 0.257434 0.000001
0.562427 0.257434 0.000001
0.572331 0.257434 0.000001
0.581823 0.257434 0.000001
0.590929 0.257434 0.000001
0.599674 0.257434 0.000001
0.608079 0.257434 0.000001
0.616166 0.257434 0.000001
0.000001 0.285092 0.000001
0.037293 0.285092 0.000001
0.079714 0.285092 0.000001
0.120832 0.285092 0.000001
0.159284 0.285092 0.000001
0.194868 0.285092 0.000001
0.227530 0.285092 0.000001
0.257434 0.285092 0.000001
0.285092 0.285092 0.000001
0.310738 0.285092 0.000001
0.334585 0.285092 0.000001
0.356818 0.285092 0.000001
0.377602 0.285092 0.000001
0.397079 0.285092 0.000001
0.415373 0.285092 0.000001
0.432594 0.285092 0.000001
0.448839 0.285092 0.000001
0.464192 0.285092 0.000001
0.478729 0.285092 0.000001
0.492515 0.285092 0.000001
0.505612 0.285092 0.000001
0.518072 0.285092 0.000001
0.529943 0.285092 0.000001
0.541266 0.285092 0.000001
0.552083 0.285092 0.000001
0.562427 0.285092 0.000001
0.572331 0.285092 0.000001
0.581823 0.285092 0.000001
0.590929 0.285092 0.000001
0.599674 0.285092 0.000001
0.608079 0.285092 0.000001
0.616166 0.285092 0.000001
0.000001 0.310738 0.000001
0.037293 0.310738 0.000001
0.079714 0.310738 0.000001
0.120832 0.310738 0.000001
0.159284 0.310738 0.000001
0.194868 0.310738 0.000001
0.227530 0.310738 0.000001
0.257434 0.310738 0.000001
0.285092 0.310738 0.000001
0.310738 0.310738 0.000001
0.334585 0.310738 0.000001
0.356818 0.310738 0.000001
0.377602 0.310738 0.000001
0.397079 0.310738 0.000001
0.415373 0.310738 0.000001
0.432594 0.310738 0.000001
0.448839 0.310738 0.000001
0.464192 0.310738 0.000001
0.478729 0.310738 0.000001
0.492515 0.310738 0.000001
0.505612 0.310738 0.000001
0.518072 0.310738 0.000001
0.529943 0.310738 0.000001
0.541266 0.310738 0.000001
0.552083 0.310738 0.000001
0.562427 0.310738 0.000001
0.572331 0.310738 0.000001
0.581823 0.310738 0.000001
0.590929 0.310738 0.000001
0.599674 0.310738 0.000001
0.608079 0.310738 0.000001
0.616166 0.310738 0.000001
0.000001 0.334585 0.000001
0.037293 0.334585 0.000001
0.079714 0.334585 0.000001
0.120832 0.334585 0.000001
0.159284 0.334585 0.000001
0.194868 0.334585 0.000001
0.227530 0.334585 0.000001
0.257434 0.334585 0.000001
0.285092 0.334585 0.000001
0.310738 0.334585 0.000001
0.334585 0.334585 0.000001
0.356818 0.334585 0.000001
0.377602 0.334585 0.000001
0.397079 0.334585 0.000001
0.415373 0.334585 0.000001
0.432594 0.334585 0.000001
0.448839 0.334585 0.000001
0.464192 0.334585 0.000001
0.478729 0.334585 0.000001
0.492515 0.334585 0.000001
0.505612 0.334585 0.000001
0.518072 0.334585 0.000001
0.529943 0.334585 0.000001
0.541266 0.334585 0.000001
0.552083 0.334585 0.000001
0.562427 0.334585 0.000001
0.572331 0.334585 0.000001
0.581823 0.334585 0.000001
0.590929 0.334585 0.000001
0.599674 0.334585 0.000001
0.608079 0.334585 0.000001
0.616166 0.334585 0.000001
0.000001 0.356818 0.000001
0.037293 0.356818 0.000001
0.079714 0.356818 0.000001
0.120832 0.356818 0.000001
0.159284 0.356818 0.000001
0.194868 0.356818 0.000001
0.227530 0.356818 0.000001
0.257434 0.356818 0.000001
0.285092 0.356818 0.000001
0.310738 0.356818 0.000001
0.334585 0.356818 0.000001
0.356818 0.356818 0.000001
0.377602 0.356818 0.000001
0.397079 0.356818 0.000001
0.415373 0.356818 0.000001
0.432594 0.356818 0.000001
0.448839 0.356818 0.000001
0.464192 0.356818 0.000001
0.478729 0.356818 0.000001
0.492515 0.356818 0.000001
0.505612 0.356818 0.000001
0.518072 0.356818 0.000001
0.529943 0.356818 0.000001
0.541266 0.356818 0.000001
0.552083 0.356818 0.000001
0.562427 0.356818 0.000001
0.572331 0.356818 0.000001
0.581823 0.356818 0.000001
0.590929 0.356818 0.000001
0.599674 0.356818 0.000001
0.608079 0.356818 0.000001
0.616166 0.356818 0.000001
0.000001 0.377602 0.000001
0.037293 0.377602 0.000001
0.079714 0.377602 0.000001
0.120832 0.377602 0.000001
0.159284 0.377602 0.000001
0.194868 0.377602 0.000001
0.227530 0.377602 0.000001
0.257434 0.377602 0.000001
0.285092 0.377602 0.000001
0.310738 0.377602 0.000001
0.334585 0.377602 0.000001
0.356818 0.377602 0.000001
0.377602 0.377602 0.000001
0.397079 0.377602 0.000001
0.415373 0.377602 0.000001
0.432594 0.377602 0.000001
0.448839 0.377602 0.000001
0.464192 0.377602 0.000001
0.478729 0.377602 0.000001
0.492515 0.377602 0.000001
0.505612 0.377602 0.000001
0.518072 0.377602 0.000001
0.529943 0.377602 0.000001
0.541266 0.377602 0.000001
0.552083 0.377602 0.000001
0.562427 0.377602 0.000001
0.572331 0.377602 0.000001
0.581823 0.377602 0.000001
0.590929 0.377602 0.000001
0.599674 0.377602 0.000001
0.608079 0.377602 0.000001
0.616166 0.377602 0.000001
0.000001 0.397079 0.000001
0.037293 0.397079 0.000001
0.079714 0.397079 0.000001
0.120832 0.397079 0.000001
0.159284 0.397079 0.000001
0.194868 0.397079 0.000001
0.227530 0.397079 0.000001
0.257434 0.397079 0.000001
0.285092 0.397079 0.000001
0.310738 0.397079 0.000001
0.334585 0.397079 0.000001
0.356818 0.397079 0.000001
0.377602 0.397079 0.000001
0.397079 0.397079 0.000001
0.415373 0.397079 0.000001
0.432594 0.397079 0.000001
0.448839 0.397079 0.000001
0.464192 0.397079 0.000001
0.478729 0.397079 0.000001
0.492515 0.397079 0.000001
0.505612 0.397079 0.000001
0.518072 0.397079 0.000001
0.529943 0.397079 0.000001
0.541266 0.397079 0.000001
0.552083 0.397079 0.000001
0.562427 0.397079 0.000001
0.572331 0.397079 0.000001
0.581823 0.397079 0.000001
0.590929 0.397079 0.000001
0.599674 0.397079 0.000001
0.608079 0.397079 0.000001
0.616166 0.397079 0.000001
0.000001 0.415373 0.000001
0.037293 0.415373 0.000001
0.079714 0.415373 0.000001
0.120832 0.415373 0.000001
0.159284 0.415373 0.000001
0.194868 0.415373 0.000001
0.227530 0.415373 0.000001
0.257434 0.415373 0.000001
0.285092 0.415373 0.000001
0.310738 0.415373 0.000001
0.334585 0.415373 0.000001
0.356818 0.415373 0.000001
0.377602 0.415373 0.000001
0.397079 0.415373 0.000001
0.415373 0.415373 0.000001
0.432594 0.415373 0.000001
0.448839 0.415373 0.000001
0.464192 0.415373 0.000001
0.478729 0.415373 0.000001
0.492515 0.415373 0.000001
0.505612 0.415373 0.000001
0.518072 0.415373 0.000001
0.529943 0.415373 0.000001
0.541266 0.415373 0.000001
0.552083 0.415373 0.000001
0.562427 0.415373 0.000001
0.572331 0.415373 0.000001
0.581823 0.415373 0.000001
0.590929 0.415373 0.000001
0.599674 0.415373 0.000001
0.608079 0.415373 0.000001
0.616166 0.415373 0.000001
0.000001 0.432594 0.000001
0.037293 0.432594 0.000001
0.079714 0.432594 0.000001
0.120832 0.432594 0.000001
0.159284 0.432594 0.000001
0.194868 0.432594 0.000001
0.227530 0.432594 0.000001
0.257434 0.432594 0.000001
0.285092 0.432594 0.000001
0.310738 0.432594 0.000001
0.334585 0.432594 0.000001
0.356818 0.432594 0.000001
0.377602 0.432594 0.000001
0.397079 0.432594 0.000001
0.415373 0.432594 0.000001
0.432594 0.432594 0.000001
0.448839 0.432594 0.000001
0.464192 0.432594 0.000001
0.478729 0.432594 0.000001
0.492515 0.432594 0.000001
0.505612 0.432594 0.000001
0.518072 0.432594 0.000001
0.529943 0.432594 0.000001
0.541266 0.432594 0.000001
0.552083 0.432594 0.000001
0.562427 0.432594 0.000001
0.572331 0.432594 0.000001
0.581823 0.432594 0.000001
0.590929 0.432594 0.000001
0.599674 0.432594 0.000001
0.608079 0.432594 0.000001
0.616166 0.432594 0.000001
0.000001 0.448839 0.000001
0.037293 0.448839 0.000001
0.079714 0.448839 0.000001
0.120832 0.448839 0.000001
0.159284 0.448839 0.000001
0.194868 0.448839 0.000001
0.227530 0.448839 0.000001
0.257434 0.448839 0.000001
0.285092 0.448839 0.000001
0.310738 0.448839 0.000001
0.334585 0.448839 0.000001
0.356818 0.448839 0.000001
0.377602 0.448839 0.000001
0.397079 0.448839 0.000001
0.415373 0.448839 0.000001
0.432594 0.448839 0.000001
0.448839 0.448839 0.000001
0.464192 0.448839 0.000001
0.478729 0.448839 0.000001
0.492515 0.448839 0.000001
0.505612 0.448839 0.000001
0.518072 0.448839 0.000001
0.529943 0.448839 0.000001
0.541266 0.448839 0.000001
0.552083 0.448839 0.000001
0.562427 0.448839 0.000001
0.572331 0.448839 0.000001
0.581823 0.448839 0.000001
0.590929 0.448839 0.000001
0.599674 0.448839 0.000001
0.608079 0.448839 0.000001
0.616166 0.448839 0.000001
0.000001 0.464192 0.000001
0.037293 0.464192 0.000001
0.079714 0.464192 0.000001
0.120832 0.464192 0.000001
0.159284 0.464192 0.000001
0.194868 0.464192 0.000001
0.227530 0.464192 0.000001
0.257434 0.464192 0.000001
0.285092 0.464192 0.000001
0.310738 0.464192 0.000001
0.334585 0.464192 0.000001
0.356818 0.464192 0.000001
0.377602 0.464192 0.000001
0.397079 0.464192 0.000001
0.415373 0.464192 0.000001
0.432594 0.464192 0.000001
0.448839 0.464192 0.000001
0.464192 0.464192 0.000001
0.478729 0.464192 0.000001
0.492515 0.464192 0.000001
0.505612 0.464192 0.000001
0.518072 0.464192 0.000001
0.529943 0.464192 0.000001
0.541266 0.464192 0.000001
0.552083 0.464192 0.000001
0.562427 0.464192 0.000001
0.572331 0.464192 0.000001
0.581823 0.464192 0.000001
0.590929 0.464192 0.000001
0.599674 0.464192 0.000001
0.608079 0.464192 0.000001
0.616166 0.464192 0.000001
0.000001 0.478729 0.000001
0.037293 0.478729 0.000001
0.079714 0.478729 0.000001
0.120832 0.478729 0.000001
0.159284 0.478729 0.000001
0.194868 0.478729 0.000001
0.227530 0.478729 0.000001
0.257434 0.478729 0.000001
0.285092 0.478729 0.000001
0.310738 0.478729 0.000001
0.334585 0.478729 0.000001
0.356818 0.478729 0.000001
0.377602 0.478729 0.000001
0.397079 0.478729 0.000001
0.415373 0.478729 0.000001
0.432594 0.478729 0.000001
0.448839 0.478729 0.000001
0.464192 0.478729 0.000001
0.478729 0.478729 0.000001
0.492515 0.478729 0.000001
0.505612 0.478729 0.000001
0.518072 0.478729 0.000001
0.529943 0.478729 0.000001
0.541266 0.478729 0.000001
0.552083 0.478729 0.000001
0.562427 0.478729 0.000001
0.572331 0.478729 0.000001
0.581823 0.478729 0.000001
0.590929 0.478729 0.000001
0.599674 0.478729 0.000001
0.608079 0.478729 0.000001
0.616166 0.478729 0.000001
0.000001 0.492515 0.000001
0.037293 0.492515 0.000001
0.079714 0.492515 0.000001
0.120832 0.492515 0.000001
0.159284 0.492515 0.000001
0.194868 0.492515 0.000001
0.227530 0.492515 0.000001
0.257434 0.492515 0.000001
0.285092 0.492515 0.000001
0.310738 0.492515 0.000001
0.334585 0.492515 0.000001
0.356818 0.492515 0.000001
0.377602 0.492515 0.000001
0.397079 0.492515 0.000001
0.415373 0.492515 0.000001
0.432594 0.492515 0.000001
0.448839 0.492515 0.000001
0.464192 0.492515 0.000001
0.478729 0.492515 0.000001
0.492515 0.492515 0.000001
0.505612 0.492515 0.000001
0.518072 0.492515 0.000001
0.529943 0.492515 0.000001
0.541266 0.492515 0.000001
0.552083 0.492515 0.000001
0.562427 0.492515 0.000001
0.572331 0.492515 0.000001
0.581823 0.492515 0.000001
0.590929 0.492515 0.000001
0.599674 0.492515 0.000001
0.608079 0.492515 0.000001
0.616166 0.492515 0.000001
0.000001 0.505612 0.000001
0.037293 0.505612 0.000001
0.079714 0.505612 0.000001
0.120832 0.505612 0.000001
0.159284 0.505612 0.000001
0.194868 0.505612 0.000001
0.227530 0.505612 0.000001
0.257434 0.505612 0.000001
0.285092 0.505612 0.000001
0.310738 0.505612 0.000001
0.334585 0.505612 0.000001
0.356818 0.505612 0.000001
0.377602 0.505612 0.000001
0.397079 0.505612 0.000001
0.415373 0.505612 0.000001
0.432594 0.505612 0.000001
0.448839 0.505612 0.000001
0.464192 0.505612 0.000001
0.478729 0.505612 0.000001
0.492515 0.505612 0.000001
0.505612 0.505612 0.000001
0.518072 0.505612 0.000001
0.529943 0.505612 0.000001
0.541266 0.505612 0.000001
0.552083 0.505612 0.000001
0.562427 0.505612 0.000001
0.572331 0.505612 0.000001
0.581823 0.505612 0.000001
0.590929 0.505612 0.000001
0.599674 0.505612 0.000001
0.608079 0.505612 0.000001
0.616166 0.505612 0.000001
0.000001 0.518072 0.000001
0.037293 0.518072 0.000001
0.079714 0.518072 0.000001
0.120832 0.518072 0.000001
0.159284 0.518072 0.000001
0.194868 0.518072 0.000001
0.227530 0.518072 0.000001
0.257434 0.518072 0.000001
0.285092 0.518072 0.000001
0.310738 0.518072 0.000001
0.334585 0.518072 0.000001
0.356818 0.518072 0.000001
0.377602 0.518072 0.000001
0.397079 0.518072 0.000001
0.415373 0.518072 0.000001
0.432594 0.518072 0.000001
0.448839 0.518072 0.000001
0.464192 0.518072 0.000001
0.478729 0.518072 0.000001
0.492515 0.518072 0.000001
0.505612 0.518072 0.000001
0.518072 0.518072 0.000001
0.529943 0.518072 0.000001
0.541266 0.518072 0.000001
0.552083 0.518072 0.000001
0.562427 0.518072 0.000001
0.572331 0.518072 0.000001
0.581823 0.518072 0.000001
0.590929 0.518072 0.000001
0.599674 0.518072 0.000001
0.608079 0.518072 0.000001
0.616166 0.518072 0.000001
0.000001 0.529943 0.000001
0.037293 0.529943 0.000001
0.079714 0.529943 0.000001
0.120832 0.529943 0.000001
0.159284 0.529943 0.000001
0.194868 0.529943 0.000001
0.227530 0.529943 0.000001
0.257434 0.529943 0.000001
0.285092 0.529943 0.000001
0.310738 0.529943 0.000001
0.334585 0.529943 0.000001
0.356818 0.529943 0.000001
0.377602 0.529943 0.000001
0.397079 0.529943 0.000001
0.415373 0.529943 0.000001
0.432594 0.529943 0.000001
0.448839 0.529943 0.000001
0.464192 0.529943 0.000001
0.478729 0.529943 0.000001
0.492515 0.529943 0.000001
0.505612 0.529943 0.000001
0.518072 0.529943 0.000001
0.529943 0.529943 0.000001
0.541266 0.529943 0.000001
0.552083 0.529943 0.000001
0.562427 0.529943 0.000001
0.572331 0.529943 0.000001
0.581823 0.529943 0.000001
0.590929 0.529943 0.000001
0.599674 0.529943 0.000001
0.608079 0.529943 0.000001
0.616166 0.529943 0.000001
0.000001 0.541266 0.000001
0.037293 0.541266 0.000001
0.079714 0.541266 0.000001
0.120832 0.541266 0.000001
0.159284 0.541266 0.000001
0.194868 0.541266 0.000001
0.227530 0.541266 0.000001
0.257434 0.541266 0.000001
0.285092 0.541266 0.000001
0.310738 0.541266 0.000001
0.334585 0.541266 0.000001
0.356818 0.541266 0.000001
0.377602 0.541266 0.000001
0.397079 0.541266 0.000001
0.415373 0.541266 0.000001
0.432594 0.541266 0.000001
0.448839 0.541266 0.000001
0.464192 0.541266 0.000001
0.478729 0.541266 0.000001
0.492515 0.541266 0.000001
0.505612 0.541266 0.000001
0.518072 0.541266 0.000001
0.529943 0.541266 0.000001
0.541266 0.541266 0.000001
0.552083 0.541266 0.000001
0.562427 0.541266 0.000001
0.572331 0.541266 0.000001
0.581823 0.541266 0.000001
0.590929 0.541266 0.000001
0.599674 0.541266 0.000001
0.608079 0.541266 0.000001
0.616166 0.541266 0.000001
0.000001 0.552083 0.000001
0.037293 0.552083 0.000001
0.079714 0.552083 0.000001
0.120832 0.552083 0.000001
0.159284 0.552083 0.000001
0.194868 0.552083 0.000001
0.227530 0.552083 0.000001
0.257434 0.552083 0.000001
0.285092 0.552083 0.000001
0.310738 0.552083 0.000001
0.334585 0.552083 0.000001
0.356818 0.552083 0.000001
0.377602 0.552083 0.000001
0.397079 0.552083 0.000001
0.415373 0.552083 0.000001
0.432594 0.552083 0.000001
0.448839 0.552083 0.000001
0.464192 0.552083 0.000001
0.478729 0.552083 0.000001
0.492515 0.552083 0.000001
0.505612 0.552083 0.000001
0.518072 0.552083 0.000001
0.529943 0.552083 0.000001
0.541266 0.552083 0.000001
0.552083 0.552083 0.000001
0.562427 0.552083 0.000001
0.572331 0.552083 0.000001
0.581823 0.552083 0.000001
0.590929 0.552083 0.000001
0.599674 0.552083 0.000001
0.608079 0.552083 0.000001
0.616166 0.552083 0.000001
0.000001 0.562427 0.000001
0.037293 0.562427 0.000001
0.079714 0.562427 0.000001
0.120832 0.562427 0.000001
0.159284 0.562427 0.000001
0.194868 0.562427 0.000001
0.227530 0.562427 0.000001
0.257434 0.562427 0.000001
0.285092 0.562427 0.000001
0.310738 0.562427 0.000001
0.334585 0.562427 0.000001
0.356818 0.562427 0.000001
0.377602 0.562427 0.000001
0.397079 0.562427 0.000001
0.415373 0.562427 0.000001
0.432594 0.562427 0.000001
0.448839 0.562427 0.000001
0.464192 0.562427 0.000001
0.478729 0.562427 0.000001
0.492515 0.562427 0.000001
0.505612 0.562427 0.000001
0.518072 0.562427 0.000001
0.529943 0.562427 0.000001
0.541266 0.562427 0.000001
0.552083 0.562427 0.000001
0.562427 0.562427 0.000001
0.572331 0.562427 0.000001
0.581823 0.562427 0.000001
0.590929 0.562427 0.000001
0.599674 0.562427 0.000001
0.608079 0.562427 0.000001
0.616166 0.562427 0.000001
0.000001 0.572331 0.000001
0.037293 0.572331 0.000001
0.079714 0.572331 0.000001
0.120832 0.572331 0.000001
0.159284 0.572331 0.000001
0.194868 0.572331 0.000001
0.227530 0.572331 0.000001
0.257434 0.572331 0.000001
0.285092 0.572331 0.000001
0.310738 0.572331 0.000001
0.334585 0.572331 0.000001
0.356818 0.572331 0.000001
0.377602 0.572331 0.000001
0.397079 0.572331 0.000001
0.415373 0.572331 0.000001
0.432594 0.572331 0.000001
0.448839 0.572331 0.000001
0.464192 0.572331 0.000001
0.478729 0.572331 0.000001
0.492515 0.572331 0.000001
0.505612 0.572331 0.000001
0.518072 0.572331 0.000001
0.529943 0.572331 0.000001
0.541266 0.572331 0.000001
0.552083 0.572331 0.000001
0.562427 0.572331 0.000001
0.572331 0.572331 0.000001
0.581823 0.572331 0.000001
0.590929 0.572331 0.000001
0.599674 0.572331 0.000001
0.608079 0.572331 0.000001
0.616166 0.572331 0.000001
0.000001 0.581823 0.000001
0.037293 0.581823 0.000001
0.079714 0.581823 0.000001
0.120832 0.581823 0.000001
0.159284 0.581823 0.000001
0.194868 0.581823 0.000001
0.227530 0.581823 0.000001
0.257434 0.581823 0.000001
0.285092 0.581823 0.000001
0.310738 0.581823 0.000001
0.334585 0.581823 0.000001
0.356818 0.581823 0.000001
0.377602 0.581823 0.000001
0.397079 0.581823 0.000001
0.415373 0.581823 0.000001
0.432594 0.581823 0.000001
0.448839 0.581823 0.000001
0.464192 0.581823 0.000001
0.478729 0.581823 0.000001
0.492515 0.581823 0.000001
0.505612 0.581823 0.000001
0.518072 0.581823 0.000001
0.529943 0.581823 0.000001
0.541266 0.581823 0.000001
