src/assets/blender-lut.cube
LUT_3D_SIZE 5
DOMAIN_MIN 0.000000 0.000000 0.000000
DOMAIN_MAX 0.903226 0.903226 0.903226
0.000001 0.000001 0.000001
0.257434 0.000001 0.000001
0.415373 0.000001 0.000001
0.518072 0.000001 0.000001
0.590929 0.000001 0.000001
0.000001 0.257434 0.000001
0.257434 0.257434 0.000001
0.415373 0.257434 0.000001
0.518072 0.257434 0.000001
0.590929 0.257434 0.000001
0.000001 0.415373 0.000001
0.257434 0.415373 0.000001
0.415373 0.415373 0.000001
0.518072 0.415373 0.000001
0.590929 0.415373 0.000001
0.000001 0.518072 0.000001
0.257434 0.518072 0.000001
0.415373 0.518072 0.000001
0.518072 0.518072 0.000001
0.590929 0.518072 0.000001
0.000001 0.590929 0.000001
0.257434 0.590929 0.000001
0.415373 0.590929 0.000001
0.518072 0.590929 0.000001
0.590929 0.590929 0.000001
0.000001 0.000001 0.257434
0.257434 0.000001 0.257434
0.415373 0.000001 0.257434
0.518072 0.000001 0.257434
0.590929 0.000001 0.257434
0.000001 0.257434 0.257434
0.257434 0.257434 0.257434
0.415373 0.257434 0.257434
0.518072 0.257434 0.257434
0.590929 0.257434 0.257434
0.000001 0.415373 0.257434
0.257434 0.415373 0.257434
0.415373 0.415373 0.257434
0.518072 0.415373 0.257434
0.590929 0.415373 0.257434
0.000001 0.518072 0.257434
0.257434 0.518072 0.257434
0.415373 0.518072 0.257434
0.518072 0.518072 0.257434
0.590929 0.518072 0.257434
0.000001 0.590929 0.257434
0.257434 0.590929 0.257434
0.415373 0.590929 0.257434
0.518072 0.590929 0.257434
0.590929 0.590929 0.257434
0.000001 0.000001 0.415373
0.257434 0.000001 0.415373
0.415373 0.000001 0.415373
0.518072 0.000001 0.415373
0.590929 0.000001 0.415373
0.000001 0.257434 0.415373
0.257434 0.257434 0.415373
0.415373 0.257434 0.415373
0.518072 0.257434 0.415373
0.590929 0.257434 0.415373
0.000001 0.415373 0.415373
0.257434 0.415373 0.415373
0.415373 0.415373 0.415373
0.518072 0.415373 0.415373
0.590929 0.415373 0.415373
0.000001 0.518072 0.415373
0.257434 0.518072 0.415373
0.415373 0.518072 0.415373
0.518072 0.518072 0.415373
0.590929 0.518072 0.415373
0.000001 0.590929 0.415373
0.257434 0.590929 0.415373
0.415373 0.590929 0.415373
0.518072 0.590929 0.415373
0.590929 0.590929 0.415373
0.000001 0.000001 0.518072
0.257434 0.000001 0.518072
0.415373 0.000001 0.518072
0.518072 0.000001 0.518072
0.590929 0.000001 0.518072
0.000001 0.257434 0.518072
0.257434 0.257434 0.518072
0.415373 0.257434 0.518072
0.518072 0.257434 0.518072
0.590929 0.257434 0.518072
0.000001 0.415373 0.518072
0.257434 0.415373 0.518072
0.415373 0.415373 0.518072
0.518072 0.415373 0.518072
0.590929 0.415373 0.518072
0.000001 0.518072 0.518072
0.257434 0.518072 0.518072
0.415373 0.518072 0.518072
0.518072 0.518072 0.518072
0.590929 0.518072 0.518072
0.000001 0.590929 0.518072
0.257434 0.590929 0.518072
0.415373 0.590929 0.518072
0.518072 0.590929 0.518072
0.590929 0.590929 0.518072
0.000001 0.000001 0.590929
0.257434 0.000001 0.590929
0.415373 0.000001 0.590929
0.518072 0.000001 0.590929
0.590929 0.000001 0.590929
0.000001 0.257434 0.590929
0.257434 0.257434 0.590929
0.415373 0.257434 0.590929
0.518072 0.257434 0.590929
0.590929 0.257434 0.590929
0.000001 0.415373 0.590929
0.257434 0.415373 0.590929
0.415373 0.415373 0.590929
0.518072 0.415373 0.590929
0.590929 0.415373 0.590929
0.000001 0.518072 0.590929
0.257434 0.518072 0.590929
0.415373 0.518072 0.590929
0.518072 0.518072 0.590929
0.590929 0.518072 0.590929
0.000001 0.590929 0.590929
0.257434 0.590929 0.590929
0.415373 0.590929 0.590929
0.518072 0.590929 0.590929
0.590929 0.590929 0.590929
