src/assets/blender-lut.cube
LUT_3D_SIZE 8
DOMAIN_MIN 0.000000 0.000000 0.000000
DOMAIN_MAX 0.903226 0.903226 0.903226
0.000001 0.000001 0.000001
0.159284 0.000001 0.000001
0.285092 0.000001 0.000001
0.377602 0.000001 0.000001
0.448839 0.000001 0.000001
0.505612 0.000001 0.000001
0.552083 0.000001 0.000001
0.590929 0.000001 0.000001
0.000001 0.159284 0.000001
0.159284 0.159284 0.000001
0.285092 0.159284 0.000001
0.377602 0.159284 0.000001
0.448839 0.159284 0.000001
0.505612 0.159284 0.000001
0.552083 0.159284 0.000001
0.590929 0.159284 0.000001
0.000001 0.285092 0.000001
0.159284 0.285092 0.000001
0.285092 0.285092 0.000001
0.377602 0.285092 0.000001
0.448839 0.285092 0.000001
0.505612 0.285092 0.000001
0.552083 0.285092 0.000001
0.590929 0.285092 0.000001
0.000001 0.377602 0.000001
0.159284 0.377602 0.000001
0.285092 0.377602 0.000001
0.377602 0.377602 0.000001
0.448839 0.377602 0.000001
0.505612 0.377602 0.000001
0.552083 0.377602 0.000001
0.590929 0.377602 0.000001
0.000001 0.448839 0.000001
0.159284 0.448839 0.000001
0.285092 0.448839 0.000001
0.377602 0.448839 0.000001
0.448839 0.448839 0.000001
0.505612 0.448839 0.000001
0.552083 0.448839 0.000001
0.590929 0.448839 0.000001
0.000001 0.505612 0.000001
0.159284 0.505612 0.000001
0.285092 0.505612 0.000001
0.377602 0.505612 0.000001
0.448839 0.505612 0.000001
0.505612 0.505612 0.000001
0.552083 0.505612 0.000001
0.590929 0.505612 0.000001
0.000001 0.552083 0.000001
0.159284 0.552083 0.000001
0.285092 0.552083 0.000001
0.377602 0.552083 0.000001
0.448839 0.552083 0.000001
0.505612 0.552083 0.000001
0.552083 0.552083 0.000001
0.590929 0.552083 0.000001
0.000001 0.590929 0.000001
0.159284 0.590929 0.000001
0.285092 0.590929 0.000001
0.377602 0.590929 0.000001
0.448839 0.590929 0.000001
0.505612 0.590929 0.000001
0.552083 0.590929 0.000001
0.590929 0.590929 0.000001
0.000001 0.000001 0.159284
0.159284 0.000001 0.159284
0.285092 0.000001 0.159284
0.377602 0.000001 0.159284
0.448839 0.000001 0.159284
0.505612 0.000001 0.159284
0.552083 0.000001 0.159284
0.590929 0.000001 0.159284
0.000001 0.159284 0.159284
0.159284 0.159284 0.159284
0.285092 0.159284 0.159284
0.377602 0.159284 0.159284
0.448839 0.159284 0.159284
0.505612 0.159284 0.159284
0.552083 0.159284 0.159284
0.590929 0.159284 0.159284
0.000001 0.285092 0.159284
0.159284 0.285092 0.159284
0.285092 0.285092 0.159284
0.377602 0.285092 0.159284
0.448839 0.285092 0.159284
0.505612 0.285092 0.159284
0.552083 0.285092 0.159284
0.590929 0.285092 0.159284
0.000001 0.377602 0.159284
0.159284 0.377602 0.159284
0.285092 0.377602 0.159284
0.377602 0.377602 0.159284
0.448839 0.377602 0.159284
0.505612 0.377602 0.159284
0.552083 0.377602 0.159284
0.590929 0.377602 0.159284
0.000001 0.448839 0.159284
0.159284 0.448839 0.159284
0.285092 0.448839 0.159284
0.377602 0.448839 0.159284
0.448839 0.448839 0.159284
0.505612 0.448839 0.159284
0.552083 0.448839 0.159284
0.590929 0.448839 0.159284
0.000001 0.505612 0.159284
0.159284 0.505612 0.159284
0.285092 0.505612 0.159284
0.377602 0.505612 0.159284
0.448839 0.505612 0.159284
0.505612 0.505612 0.159284
0.552083 0.505612 0.159284
0.590929 0.505612 0.159284
0.000001 0.552083 0.159284
0.159284 0.552083 0.159284
0.285092 0.552083 0.159284
0.377602 0.552083 0.159284
0.448839 0.552083 0.159284
0.505612 0.552083 0.159284
0.552083 0.552083 0.159284
0.590929 0.552083 0.159284
0.000001 0.590929 0.159284
0.159284 0.590929 0.159284
0.285092 0.590929 0.159284
0.377602 0.590929 0.159284
0.448839 0.590929 0.159284
0.505612 0.590929 0.159284
0.552083 0.590929 0.159284
0.590929 0.590929 0.159284
0.000001 0.000001 0.285092
0.159284 0.000001 0.285092
0.285092 0.000001 0.285092
0.377602 0.000001 0.285092
0.448839 0.000001 0.285092
0.505612 0.000001 0.285092
0.552083 0.000001 0.285092
0.590929 0.000001 0.285092
0.000001 0.159284 0.285092
0.159284 0.159284 0.285092
0.285092 0.159284 0.285092
0.377602 0.159284 0.285092
0.448839 0.159284 0.285092
0.505612 0.159284 0.285092
0.552083 0.159284 0.285092
0.590929 0.159284 0.285092
0.000001 0.285092 0.285092
0.159284 0.285092 0.285092
0.285092 0.285092 0.285092
0.377602 0.285092 0.285092
0.448839 0.285092 0.285092
0.505612 0.285092 0.285092
0.552083 0.285092 0.285092
0.590929 0.285092 0.285092
0.000001 0.377602 0.285092
0.159284 0.377602 0.285092
0.285092 0.377602 0.285092
0.377602 0.377602 0.285092
0.448839 0.377602 0.285092
0.505612 0.377602 0.285092
0.552083 0.377602 0.285092
0.590929 0.377602 0.285092
0.000001 0.448839 0.285092
0.159284 0.448839 0.285092
0.285092 0.448839 0.285092
0.377602 0.448839 0.285092
0.448839 0.448839 0.285092
0.505612 0.448839 0.285092
0.552083 0.448839 0.285092
0.590929 0.448839 0.285092
0.000001 0.505612 0.285092
0.159284 0.505612 0.285092
0.285092 0.505612 0.285092
0.377602 0.505612 0.285092
0.448839 0.505612 0.285092
0.505612 0.505612 0.285092
0.552083 0.505612 0.285092
0.590929 0.505612 0.285092
0.000001 0.552083 0.285092
0.159284 0.552083 0.285092
0.285092 0.552083 0.285092
0.377602 0.552083 0.285092
0.448839 0.552083 0.285092
0.505612 0.552083 0.285092
0.552083 0.552083 0.285092
0.590929 0.552083 0.285092
0.000001 0.590929 0.285092
0.159284 0.590929 0.285092
0.285092 0.590929 0.285092
0.377602 0.590929 0.285092
0.448839 0.590929 0.285092
0.505612 0.590929 0.285092
0.552083 0.590929 0.285092
0.590929 0.590929 0.285092
0.000001 0.000001 0.377602
0.159284 0.000001 0.377602
0.285092 0.000001 0.377602
0.377602 0.000001 0.377602
0.448839 0.000001 0.377602
0.505612 0.000001 0.377602
0.552083 0.000001 0.377602
0.590929 0.000001 0.377602
0.000001 0.159284 0.377602
0.159284 0.159284 0.377602
0.285092 0.159284 0.377602
0.377602 0.159284 0.377602
0.448839 0.159284 0.377602
0.505612 0.159284 0.377602
0.552083 0.159284 0.377602
0.590929 0.159284 0.377602
0.000001 0.285092 0.377602
0.159284 0.285092 0.377602
0.285092 0.285092 0.377602
0.377602 0.285092 0.377602
0.448839 0.285092 0.377602
0.505612 0.285092 0.377602
0.552083 0.285092 0.377602
0.590929 0.285092 0.377602
0.000001 0.377602 0.377602
0.159284 0.377602 0.377602
0.285092 0.377602 0.377602
0.377602 0.377602 0.377602
0.448839 0.377602 0.377602
0.505612 0.377602 0.377602
0.552083 0.377602 0.377602
0.590929 0.377602 0.377602
0.000001 0.448839 0.377602
0.159284 0.448839 0.377602
0.285092 0.448839 0.377602
0.377602 0.448839 0.377602
0.448839 0.448839 0.377602
0.505612 0.448839 0.377602
0.552083 0.448839 0.377602
0.590929 0.448839 0.377602
0.000001 0.505612 0.377602
0.159284 0.505612 0.377602
0.285092 0.505612 0.377602
0.377602 0.505612 0.377602
0.448839 0.505612 0.377602
0.505612 0.505612 0.377602
0.552083 0.505612 0.377602
0.590929 0.505612 0.377602
0.000001 0.552083 0.377602
0.159284 0.552083 0.377602
0.285092 0.552083 0.377602
0.377602 0.552083 0.377602
0.448839 0.552083 0.377602
0.505612 0.552083 0.377602
0.552083 0.552083 0.377602
0.590929 0.552083 0.377602
0.000001 0.590929 0.377602
0.159284 0.590929 0.377602
0.285092 0.590929 0.377602
0.377602 0.590929 0.377602
0.448839 0.590929 0.377602
0.505612 0.590929 0.377602
0.552083 0.590929 0.377602
0.590929 0.590929 0.377602
0.000001 0.000001 0.448839
0.159284 0.000001 0.448839
0.285092 0.000001 0.448839
0.377602 0.000001 0.448839
0.448839 0.000001 0.448839
0.505612 0.000001 0.448839
0.552083 0.000001 0.448839
0.590929 0.000001 0.448839
0.000001 0.159284 0.448839
0.159284 0.159284 0.448839
0.285092 0.159284 0.448839
0.377602 0.159284 0.448839
0.448839 0.159284 0.448839
0.505612 0.159284 0.448839
0.552083 0.159284 0.448839
0.590929 0.159284 0.448839
0.000001 0.285092 0.448839
0.159284 0.285092 0.448839
0.285092 0.285092 0.448839
0.377602 0.285092 0.448839
0.448839 0.285092 0.448839
0.505612 0.285092 0.448839
0.552083 0.285092 0.448839
0.590929 0.285092 0.448839
0.000001 0.377602 0.448839
0.159284 0.377602 0.448839
0.285092 0.377602 0.448839
0.377602 0.377602 0.448839
0.448839 0.377602 0.448839
0.505612 0.377602 0.448839
0.552083 0.377602 0.448839
0.590929 0.377602 0.448839
0.000001 0.448839 0.448839
0.159284 0.448839 0.448839
0.285092 0.448839 0.448839
0.377602 0.448839 0.448839
0.448839 0.448839 0.448839
0.505612 0.448839 0.448839
0.552083 0.448839 0.448839
0.590929 0.448839 0.448839
0.000001 0.505612 0.448839
0.159284 0.505612 0.448839
0.285092 0.505612 0.448839
0.377602 0.505612 0.448839
0.448839 0.505612 0.448839
0.505612 0.505612 0.448839
0.552083 0.505612 0.448839
0.590929 0.505612 0.448839
0.000001 0.552083 0.448839
0.159284 0.552083 0.448839
0.285092 0.552083 0.448839
0.377602 0.552083 0.448839
0.448839 0.552083 0.448839
0.505612 0.552083 0.448839
0.552083 0.552083 0.448839
0.590929 0.552083 0.448839
0.000001 0.590929 0.448839
0.159284 0.590929 0.448839
0.285092 0.590929 0.448839
0.377602 0.590929 0.448839
0.448839 0.590929 0.448839
0.505612 0.590929 0.448839
0.552083 0.590929 0.448839
0.590929 0.590929 0.448839
0.000001 0.000001 0.505612
0.159284 0.000001 0.505612
0.285092 0.000001 0.505612
0.377602 0.000001 0.505612
0.448839 0.000001 0.505612
0.505612 0.000001 0.505612
0.552083 0.000001 0.505612
0.590929 0.000001 0.505612
0.000001 0.159284 0.505612
0.159284 0.159284 0.505612
0.285092 0.159284 0.505612
0.377602 0.159284 0.505612
0.448839 0.159284 0.505612
0.505612 0.159284 0.505612
0.552083 0.159284 0.505612
0.590929 0.159284 0.505612
0.000001 0.285092 0.505612
0.159284 0.285092 0.505612
0.285092 0.285092 0.505612
0.377602 0.285092 0.505612
0.448839 0.285092 0.505612
0.505612 0.285092 0.505612
0.552083 0.285092 0.505612
0.590929 0.285092 0.505612
0.000001 0.377602 0.505612
0.159284 0.377602 0.505612
0.285092 0.377602 0.505612
0.377602 0.377602 0.505612
0.448839 0.377602 0.505612
0.505612 0.377602 0.505612
0.552083 0.377602 0.505612
0.590929 0.377602 0.505612
0.000001 0.448839 0.505612
0.159284 0.448839 0.505612
0.285092 0.448839 0.505612
0.377602 0.448839 0.505612
0.448839 0.448839 0.505612
0.505612 0.448839 0.505612
0.552083 0.448839 0.505612
0.590929 0.448839 0.505612
0.000001 0.505612 0.505612
0.159284 0.505612 0.505612
0.285092 0.505612 0.505612
0.377602 0.505612 0.505612
0.448839 0.505612 0.505612
0.505612 0.505612 0.505612
0.552083 0.505612 0.505612
0.590929 0.505612 0.505612
0.000001 0.552083 0.505612
0.159284 0.552083 0.505612
0.285092 0.552083 0.505612
0.377602 0.552083 0.505612
0.448839 0.552083 0.505612
0.505612 0.552083 0.505612
0.552083 0.552083 0.505612
0.590929 0.552083 0.505612
0.000001 0.590929 0.505612
0.159284 0.590929 0.505612
0.285092 0.590929 0.505612
0.377602 0.590929 0.505612
0.448839 0.590929 0.505612
0.505612 0.590929 0.505612
0.552083 0.590929 0.505612
0.590929 0.590929 0.505612
0.000001 0.000001 0.552083
0.159284 0.000001 0.552083
0.285092 0.000001 0.552083
0.377602 0.000001 0.552083
0.448839 0.000001 0.552083
0.505612 0.000001 0.552083
0.552083 0.000001 0.552083
0.590929 0.000001 0.552083
0.000001 0.159284 0.552083
0.159284 0.159284 0.552083
0.285092 0.159284 0.552083
0.377602 0.159284 0.552083
0.448839 0.159284 0.552083
0.505612 0.159284 0.552083
0.552083 0.159284 0.552083
0.590929 0.159284 0.552083
0.000001 0.285092 0.552083
0.159284 0.285092 0.552083
0.285092 0.285092 0.552083
0.377602 0.285092 0.552083
0.448839 0.285092 0.552083
0.505612 0.285092 0.552083
0.552083 0.285092 0.552083
0.590929 0.285092 0.552083
0.000001 0.377602 0.552083
0.159284 0.377602 0.552083
0.285092 0.377602 0.552083
0.377602 0.377602 0.552083
0.448839 0.377602 0.552083
0.505612 0.377602 0.552083
0.552083 0.377602 0.552083
0.590929 0.377602 0.552083
0.000001 0.448839 0.552083
0.159284 0.448839 0.552083
0.285092 0.448839 0.552083
0.377602 0.448839 0.552083
0.448839 0.448839 0.552083
0.505612 0.448839 0.552083
0.552083 0.448839 0.552083
0.590929 0.448839 0.552083
0.000001 0.505612 0.552083
0.159284 0.505612 0.552083
0.285092 0.505612 0.552083
0.377602 0.505612 0.552083
0.448839 0.505612 0.552083
0.505612 0.505612 0.552083
0.552083 0.505612 0.552083
0.590929 0.505612 0.552083
0.000001 0.552083 0.552083
0.159284 0.552083 0.552083
0.285092 0.552083 0.552083
0.377602 0.552083 0.552083
0.448839 0.552083 0.552083
0.505612 0.552083 0.552083
0.552083 0.552083 0.552083
0.590929 0.552083 0.552083
0.000001 0.590929 0.552083
0.159284 0.590929 0.552083
0.285092 0.590929 0.552083
0.377602 0.590929 0.552083
0.448839 0.590929 0.552083
0.505612 0.590929 0.552083
0.552083 0.590929 0.552083
0.590929 0.590929 0.552083
0.000001 0.000001 0.590929
0.159284 0.000001 0.590929
0.285092 0.000001 0.590929
0.377602 0.000001 0.590929
0.448839 0.000001 0.590929
0.505612 0.000001 0.590929
0.552083 0.000001 0.590929
0.590929 0.000001 0.590929
0.000001 0.159284 0.590929
0.159284 0.159284 0.590929
0.285092 0.159284 0.590929
0.377602 0.159284 0.590929
0.448839 0.159284 0.590929
0.505612 0.159284 0.590929
0.552083 0.159284 0.590929
0.590929 0.159284 0.590929
0.000001 0.285092 0.590929
0.159284 0.285092 0.590929
0.285092 0.285092 0.590929
0.377602 0.285092 0.590929
0.448839 0.285092 0.590929
0.505612 0.285092 0.590929
0.552083 0.285092 0.590929
0.590929 0.285092 0.590929
0.000001 0.377602 0.590929
0.159284 0.377602 0.590929
0.285092 0.377602 0.590929
0.377602 0.377602 0.590929
0.448839 0.377602 0.590929
0.505612 0.377602 0.590929
0.552083 0.377602 0.590929
0.590929 0.377602 0.590929
0.000001 0.448839 0.590929
0.159284 0.448839 0.590929
0.285092 0.448839 0.590929
0.377602 0.448839 0.590929
0.448839 0.448839 0.590929
0.505612 0.448839 0.590929
0.552083 0.448839 0.590929
0.590929 0.448839 0.590929
0.000001 0.505612 0.590929
0.159284 0.505612 0.590929
0.285092 0.505612 0.590929
0.377602 0.505612 0.590929
0.448839 0.505612 0.590929
0.505612 0.505612 0.590929
0.552083 0.505612 0.590929
0.590929 0.505612 0.590929
0.000001 0.552083 0.590929
0.159284 0.552083 0.590929
0.285092 0.552083 0.590929
0.377602 0.552083 0.590929
0.448839 0.552083 0.590929
0.505612 0.552083 0.590929
0.552083 0.552083 0.590929
0.590929 0.552083 0.590929
0.000001 0.590929 0.590929
0.159284 0.590929 0.590929
0.285092 0.590929 0.590929
0.377602 0.590929 0.590929
0.448839 0.590929 0.590929
0.505612 0.590929 0.590929
0.552083 0.590929 0.590929
0.590929 0.590929 0.590929
